website/src/static/charts/areachart.svg

<svg width="148" height="80" viewBox="0 0 148 80" fill="none" xmlns="http://www.w3.org/2000/svg">
<path opacity="0.2" d="M141.2 46.8971L146 50.643V75.0001H2V28.9167H6.8L11.6 33.5189L16.4 28.9167L21.2 33.5189L26 36.4086L30.8 38.9772H35.6L40.4 44.0074H45.2H50L54.8 38.9772H59.6L64.4 36.4086L69.2 38.9772H74H78.8L83.6 36.4086L88.4 41.8669L93.2 38.9772H98H102.8L107.6 46.8971L112.4 41.8669L117.2 46.8971L122 41.8669H126.8L131.6 46.8971L136.4 50.643L141.2 46.8971Z" fill="#2BB3FF"/>
<path d="M146 50.5001L141.2 46.7788L136.4 50.5001L131.6 46.7788L126.8 41.7817H122L117.2 46.7788L112.4 41.7817L107.6 46.7788L102.8 38.911H98H93.2L88.4 41.7817L83.6 36.3593L78.8 38.911H74H69.2L64.4 36.3593L59.6 38.911H54.8L50 43.9081H45.2H40.4L35.6 38.911H30.8L26 36.3593L21.2 33.4886L16.4 28.9167L11.6 33.4886L6.79999 28.9167H2" stroke="#2BB3FF" stroke-width="3" stroke-linecap="round"/>
</svg>

<svg xmlns="http://www.w3.org/2000/svg" width="148" height="80" fill="none" viewBox="0 0 148 80">
  <path fill="#2BB3FF" d="m141.2 46.897 4.8 3.746V75H2V28.917h4.8l4.8 4.602 4.8-4.602 4.8 4.602 4.8 2.89 4.8 2.568h4.8l4.8 5.03H50l4.8-5.03h4.8l4.8-2.568 4.8 2.568h9.6l4.8-2.568 4.8 5.458 4.8-2.89h9.6l4.8 7.92 4.8-5.03 4.8 5.03 4.8-5.03h4.8l4.8 5.03 4.8 3.746 4.8-3.746Z" opacity=".2"/>
  <path stroke="#2BB3FF" stroke-linecap="round" stroke-width="3" d="m146 50.5-4.8-3.721-4.8 3.721-4.8-3.721-4.8-4.997H122l-4.8 4.997-4.8-4.997-4.8 4.997-4.8-7.868h-9.6l-4.8 2.87-4.8-5.422-4.8 2.552h-9.6l-4.8-2.552-4.8 2.552h-4.8L50 43.908h-9.6l-4.8-4.997h-4.8L26 36.359l-4.8-2.87-4.8-4.572-4.8 4.572-4.8-4.572H2"/>
</svg>
